X: 5033
T: Brian O'Laimhnai
R: reel
M: 4/4
K: Dmajor
|:(3DDD FA dAFA|DFAF GFEF|(3DDD FA dcde|fedB AFEF:|
|:(3BBB AF ABAF|(3BBB AF AFEF|(3BBB AF ABde|fedB AFEF:|
|:(3EEE GB AGBA|(3EEE BA dBAF|(3EEE (3GGG ABde|fedB AFEF:|

